X:495
T: Awkward Clown's Antics
T: Emmett Kelly's
T: Geatsai na Leibide
S: "The Roche Collection of Traditional Irish Music" [III/30/97]
L: 1/8
M: 6/8
R: jig
K: G
GBB B2B | dcA BAG | d2e dge | dec BcA |
GBB B2B | dcA BAG | d2e dgB |1 dcA G3 :|2 dcA G2 ||
(3G/B/d/ |: g2g g2f | f2e e2d | d2e dge | dec BcA |
Ggg g2f | f2e e2d | d2e dge | dec BcA :|
